static/img/kroki/c8d6014da0379837d862991a3188a889.svg

<?xml version="1.0" encoding="us-ascii" standalone="no"?><svg xmlns="http://www.w3.org/2000/svg" xmlns:xlink="http://www.w3.org/1999/xlink" contentStyleType="text/css" height="846px" preserveAspectRatio="none" style="width:332px;height:846px;" version="1.1" viewBox="0 0 332 846" width="332px" zoomAndPan="magnify"><defs/><g><!--class aws_q_business_web_experience--><g id="elem_aws_q_business_web_experience"><rect codeLine="23" fill="#3D176E" height="205.5703" id="aws_q_business_web_experience" rx="2.5" ry="2.5" style="stroke:#000D19;stroke-width:0.5;" width="318" x="7" y="633.84"/><ellipse cx="22" cy="653.7345" fill="#ADD1B2" rx="11" ry="11" style="stroke:#181818;stroke-width:1.0;"/><path d="M24.9688,659.3752 Q24.3906,659.672 23.75,659.8127 Q23.1094,659.9689 22.4063,659.9689 Q19.9063,659.9689 18.5781,658.3283 Q17.2656,656.672 17.2656,653.547 Q17.2656,650.422 18.5781,648.7658 Q19.9063,647.1095 22.4063,647.1095 Q23.1094,647.1095 23.75,647.2658 Q24.4063,647.422 24.9688,647.7189 L24.9688,650.4377 Q24.3438,649.8595 23.75,649.5939 Q23.1563,649.3127 22.5313,649.3127 Q21.1875,649.3127 20.5,650.3908 Q19.8125,651.4533 19.8125,653.547 Q19.8125,655.6408 20.5,656.7189 Q21.1875,657.7814 22.5313,657.7814 Q23.1563,657.7814 23.75,657.5158 Q24.3438,657.2345 24.9688,656.6564 L24.9688,659.3752 Z " fill="#000000"/><text fill="#D9B8FF" font-family="Helvetica" font-size="17" lengthAdjust="spacing" textLength="276" x="41" y="659.6198">aws_q_business_web_experience</text><line style="stroke:#000D19;stroke-width:0.5;" x1="8" x2="324" y1="673.6291" y2="673.6291"/><text fill="#D9B8FF" font-family="sans-serif" font-size="14" font-weight="bold" lengthAdjust="spacing" textLength="106" x="18" y="695.6242">application_id</text><text fill="#D9B8FF" font-family="sans-serif" font-size="14" lengthAdjust="spacing" textLength="48" x="124" y="695.6242">: string</text><text fill="#D9B8FF" font-family="sans-serif" font-size="14" font-weight="bold" lengthAdjust="spacing" textLength="83" x="18" y="721.9211">created_at</text><text fill="#D9B8FF" font-family="sans-serif" font-size="14" lengthAdjust="spacing" textLength="70" x="101" y="721.9211">: datetime</text><text fill="#D9B8FF" font-family="sans-serif" font-size="14" font-weight="bold" lengthAdjust="spacing" textLength="132" x="18" y="748.2179">default_endpoint</text><text fill="#D9B8FF" font-family="sans-serif" font-size="14" lengthAdjust="spacing" textLength="48" x="150" y="748.2179">: string</text><text fill="#D9B8FF" font-family="sans-serif" font-size="14" font-weight="bold" lengthAdjust="spacing" textLength="49" x="18" y="774.5148">status</text><text fill="#D9B8FF" font-family="sans-serif" font-size="14" lengthAdjust="spacing" textLength="48" x="67" y="774.5148">: string</text><text fill="#D9B8FF" font-family="sans-serif" font-size="14" font-weight="bold" lengthAdjust="spacing" textLength="87" x="18" y="800.8117">updated_at</text><text fill="#D9B8FF" font-family="sans-serif" font-size="14" lengthAdjust="spacing" textLength="70" x="105" y="800.8117">: datetime</text><text fill="#D9B8FF" font-family="sans-serif" font-size="14" font-weight="bold" lengthAdjust="spacing" textLength="151" x="18" y="827.1086">web_experience_id</text><text fill="#D9B8FF" font-family="sans-serif" font-size="14" lengthAdjust="spacing" textLength="48" x="169" y="827.1086">: string</text></g><!--class aws_resource--><g id="elem_aws_resource"><rect codeLine="31" fill="#3D176E" height="74.0859" id="aws_resource" rx="2.5" ry="2.5" style="stroke:#000D19;stroke-width:0.5;" width="155" x="88.5" y="438.75"/><ellipse cx="103.5" cy="458.6445" fill="#ADD1B2" rx="11" ry="11" style="stroke:#181818;stroke-width:1.0;"/><path d="M106.4688,464.2852 Q105.8906,464.582 105.25,464.7227 Q104.6094,464.8789 103.9063,464.8789 Q101.4063,464.8789 100.0781,463.2383 Q98.7656,461.582 98.7656,458.457 Q98.7656,455.332 100.0781,453.6758 Q101.4063,452.0195 103.9063,452.0195 Q104.6094,452.0195 105.25,452.1758 Q105.9063,452.332 106.4688,452.6289 L106.4688,455.3477 Q105.8438,454.7695 105.25,454.5039 Q104.6563,454.2227 104.0313,454.2227 Q102.6875,454.2227 102,455.3008 Q101.3125,456.3633 101.3125,458.457 Q101.3125,460.5508 102,461.6289 Q102.6875,462.6914 104.0313,462.6914 Q104.6563,462.6914 105.25,462.4258 Q105.8438,462.1445 106.4688,461.5664 L106.4688,464.2852 Z " fill="#000000"/><text fill="#D9B8FF" font-family="Helvetica" font-size="17" lengthAdjust="spacing" textLength="113" x="122.5" y="464.5298">aws_resource</text><line style="stroke:#000D19;stroke-width:0.5;" x1="89.5" x2="242.5" y1="478.5391" y2="478.5391"/><text fill="#D9B8FF" font-family="sans-serif" font-size="14" font-weight="bold" lengthAdjust="spacing" textLength="26" x="99.5" y="500.5342">arn</text><text fill="#D9B8FF" font-family="sans-serif" font-size="14" lengthAdjust="spacing" textLength="48" x="125.5" y="500.5342">: string</text></g><!--class resource--><g id="elem_resource"><rect codeLine="34" fill="#3D176E" height="310.7578" id="resource" rx="2.5" ry="2.5" style="stroke:#000D19;stroke-width:0.5;" width="227" x="52.5" y="7"/><ellipse cx="121.25" cy="26.8945" fill="#ADD1B2" rx="11" ry="11" style="stroke:#181818;stroke-width:1.0;"/><path d="M124.2188,32.5352 Q123.6406,32.832 123,32.9727 Q122.3594,33.1289 121.6563,33.1289 Q119.1563,33.1289 117.8281,31.4883 Q116.5156,29.832 116.5156,26.707 Q116.5156,23.582 117.8281,21.9258 Q119.1563,20.2695 121.6563,20.2695 Q122.3594,20.2695 123,20.4258 Q123.6563,20.582 124.2188,20.8789 L124.2188,23.5977 Q123.5938,23.0195 123,22.7539 Q122.4063,22.4727 121.7813,22.4727 Q120.4375,22.4727 119.75,23.5508 Q119.0625,24.6133 119.0625,26.707 Q119.0625,28.8008 119.75,29.8789 Q120.4375,30.9414 121.7813,30.9414 Q122.4063,30.9414 123,30.6758 Q123.5938,30.3945 124.2188,29.8164 L124.2188,32.5352 Z " fill="#000000"/><text fill="#D9B8FF" font-family="Helvetica" font-size="17" lengthAdjust="spacing" textLength="71" x="146.75" y="32.7798">resource</text><line style="stroke:#000D19;stroke-width:0.5;" x1="53.5" x2="278.5" y1="46.7891" y2="46.7891"/><text fill="#D9B8FF" font-family="sans-serif" font-size="14" font-weight="bold" lengthAdjust="spacing" textLength="29" x="63.5" y="68.7842">age</text><text fill="#D9B8FF" font-family="sans-serif" font-size="14" lengthAdjust="spacing" textLength="66" x="92.5" y="68.7842">: duration</text><text fill="#D9B8FF" font-family="sans-serif" font-size="14" font-weight="bold" lengthAdjust="spacing" textLength="43" x="63.5" y="95.0811">atime</text><text fill="#D9B8FF" font-family="sans-serif" font-size="14" lengthAdjust="spacing" textLength="70" x="106.5" y="95.0811">: datetime</text><text fill="#D9B8FF" font-family="sans-serif" font-size="14" font-weight="bold" lengthAdjust="spacing" textLength="43" x="63.5" y="121.3779">ctime</text><text fill="#D9B8FF" font-family="sans-serif" font-size="14" lengthAdjust="spacing" textLength="70" x="106.5" y="121.3779">: datetime</text><text fill="#D9B8FF" font-family="sans-serif" font-size="14" font-weight="bold" lengthAdjust="spacing" textLength="14" x="63.5" y="147.6748">id</text><text fill="#D9B8FF" font-family="sans-serif" font-size="14" lengthAdjust="spacing" textLength="48" x="77.5" y="147.6748">: string</text><text fill="#D9B8FF" font-family="sans-serif" font-size="14" font-weight="bold" lengthAdjust="spacing" textLength="33" x="63.5" y="173.9717">kind</text><text fill="#D9B8FF" font-family="sans-serif" font-size="14" lengthAdjust="spacing" textLength="48" x="96.5" y="173.9717">: string</text><text fill="#D9B8FF" font-family="sans-serif" font-size="14" font-weight="bold" lengthAdjust="spacing" textLength="90" x="63.5" y="200.2686">last_access</text><text fill="#D9B8FF" font-family="sans-serif" font-size="14" lengthAdjust="spacing" textLength="66" x="153.5" y="200.2686">: duration</text><text fill="#D9B8FF" font-family="sans-serif" font-size="14" font-weight="bold" lengthAdjust="spacing" textLength="90" x="63.5" y="226.5654">last_update</text><text fill="#D9B8FF" font-family="sans-serif" font-size="14" lengthAdjust="spacing" textLength="66" x="153.5" y="226.5654">: duration</text><text fill="#D9B8FF" font-family="sans-serif" font-size="14" font-weight="bold" lengthAdjust="spacing" textLength="48" x="63.5" y="252.8623">mtime</text><text fill="#D9B8FF" font-family="sans-serif" font-size="14" lengthAdjust="spacing" textLength="70" x="111.5" y="252.8623">: datetime</text><text fill="#D9B8FF" font-family="sans-serif" font-size="14" font-weight="bold" lengthAdjust="spacing" textLength="43" x="63.5" y="279.1592">name</text><text fill="#D9B8FF" font-family="sans-serif" font-size="14" lengthAdjust="spacing" textLength="48" x="106.5" y="279.1592">: string</text><text fill="#D9B8FF" font-family="sans-serif" font-size="14" font-weight="bold" lengthAdjust="spacing" textLength="34" x="63.5" y="305.4561">tags</text><text fill="#D9B8FF" font-family="sans-serif" font-size="14" lengthAdjust="spacing" textLength="171" x="97.5" y="305.4561">: dictionary[string, string]</text></g><!--reverse link aws_resource to aws_q_business_web_experience--><g id="link_aws_resource_aws_q_business_web_experience"><path codeLine="46" d="M166,531.33 C166,562.55 166,591 166,633.38 " fill="none" id="aws_resource-backto-aws_q_business_web_experience" style="stroke:#FFAF37;stroke-width:2.0;"/><polygon fill="none" points="166,513.33,160,531.33,172,531.33,166,513.33" style="stroke:#FFAF37;stroke-width:2.0;"/></g><!--reverse link resource to aws_resource--><g id="link_resource_aws_resource"><path codeLine="47" d="M166,336.17 C166,381.21 166,408.34 166,438.51 " fill="none" id="resource-backto-aws_resource" style="stroke:#FFAF37;stroke-width:2.0;"/><polygon fill="none" points="166,318.17,160,336.17,172,336.17,166,318.17" style="stroke:#FFAF37;stroke-width:2.0;"/></g><!--SRC=[XP9FIyD04CNl-HGBteg5Lj5QyQ85qOk8UXC9azr9kpJPZRCJQ_tptTqqhIIRM6_XlL_clPbaeHKAp0jUYnpp1Cb5RgbD0GIvk2IogvdDB8c3D8NqU1AQrzRmly0Tv2XkC7j3rX92uccXvTAWS-AeOLs1NCx9baRLuvd0E6-XuGOroy2vIsRIISdOAAEcoLcQXcGuzE1OZIUdsC4iAQGjCXgDr7WQ8lz6xTtxbtZK7oZ6pQFTMSPEpKx4XjhRiY8Q9JkBxlm_Ezw3KjhCnKb3UwWxaK5gwOyBK7PLqIbahXdZ60ajhmkSTRR2wPbA9xtmxLzm9AlJ2LYv-3LEIgUh7oTUOHBZUu6aqKWKdz5W04MH-OLOMnDhDHYS- -da6tfB4WAZYe4hMVbdrZbwGs4APSOn6bLORRZrbcFWqhMaib3zWzfzsldVZHK8dIrfrvXC3zP6vhX9AccpMALKYK6wxD624_YJjmMVnJ58wQyP96oSUjF0oNjo3DJIxs26UJrHo-ereFLpxHrkcHU_QkiM5r_3uN3_5uvwu9qK_G00]--></g></svg>

<svg xmlns="http://www.w3.org/2000/svg" width="332" height="846" viewBox="0 0 332 846"><rect width="318" height="205.57" x="7" y="633.84" fill="#3D176E" rx="2.5" ry="2.5" style="stroke:#000d19;stroke-width:.5"/><circle cx="22" cy="653.735" r="11" fill="#ADD1B2" style="stroke:#181818;stroke-width:1"/><path d="M24.969 659.375q-.578.297-1.219.438-.64.156-1.344.156-2.5 0-3.828-1.64-1.312-1.657-1.312-4.782t1.312-4.781q1.328-1.656 3.828-1.656.703 0 1.344.156.656.156 1.219.453v2.719q-.625-.578-1.219-.844-.594-.281-1.219-.281-1.343 0-2.031 1.078-.687 1.062-.687 3.156t.687 3.172q.688 1.062 2.031 1.062.625 0 1.219-.265.594-.281 1.219-.86z"/><text x="41" y="659.62" fill="#D9B8FF" font-family="Helvetica" font-size="17" textLength="276">aws_q_business_web_experience</text><path d="M8 673.629h316" style="stroke:#000d19;stroke-width:.5"/><text x="18" y="695.624" fill="#D9B8FF" font-family="sans-serif" font-size="14" font-weight="bold" textLength="106">application_id</text><text x="124" y="695.624" fill="#D9B8FF" font-family="sans-serif" font-size="14" textLength="48">: string</text><text x="18" y="721.921" fill="#D9B8FF" font-family="sans-serif" font-size="14" font-weight="bold" textLength="83">created_at</text><text x="101" y="721.921" fill="#D9B8FF" font-family="sans-serif" font-size="14" textLength="70">: datetime</text><text x="18" y="748.218" fill="#D9B8FF" font-family="sans-serif" font-size="14" font-weight="bold" textLength="132">default_endpoint</text><text x="150" y="748.218" fill="#D9B8FF" font-family="sans-serif" font-size="14" textLength="48">: string</text><text x="18" y="774.515" fill="#D9B8FF" font-family="sans-serif" font-size="14" font-weight="bold" textLength="49">status</text><text x="67" y="774.515" fill="#D9B8FF" font-family="sans-serif" font-size="14" textLength="48">: string</text><text x="18" y="800.812" fill="#D9B8FF" font-family="sans-serif" font-size="14" font-weight="bold" textLength="87">updated_at</text><text x="105" y="800.812" fill="#D9B8FF" font-family="sans-serif" font-size="14" textLength="70">: datetime</text><text x="18" y="827.109" fill="#D9B8FF" font-family="sans-serif" font-size="14" font-weight="bold" textLength="151">web_experience_id</text><text x="169" y="827.109" fill="#D9B8FF" font-family="sans-serif" font-size="14" textLength="48">: string</text><rect width="155" height="74.086" x="88.5" y="438.75" fill="#3D176E" rx="2.5" ry="2.5" style="stroke:#000d19;stroke-width:.5"/><circle cx="103.5" cy="458.644" r="11" fill="#ADD1B2" style="stroke:#181818;stroke-width:1"/><path d="M106.469 464.285q-.578.297-1.219.438-.64.156-1.344.156-2.5 0-3.828-1.64-1.312-1.657-1.312-4.782t1.312-4.781q1.328-1.656 3.828-1.656.703 0 1.344.156.656.156 1.219.453v2.719q-.625-.579-1.219-.844-.594-.281-1.219-.281-1.344 0-2.031 1.078-.687 1.062-.687 3.156t.687 3.172q.688 1.062 2.031 1.062.625 0 1.219-.265.594-.281 1.219-.86z"/><text x="122.5" y="464.53" fill="#D9B8FF" font-family="Helvetica" font-size="17" textLength="113">aws_resource</text><path d="M89.5 478.539h153" style="stroke:#000d19;stroke-width:.5"/><text x="99.5" y="500.534" fill="#D9B8FF" font-family="sans-serif" font-size="14" font-weight="bold" textLength="26">arn</text><text x="125.5" y="500.534" fill="#D9B8FF" font-family="sans-serif" font-size="14" textLength="48">: string</text><rect width="227" height="310.758" x="52.5" y="7" fill="#3D176E" rx="2.5" ry="2.5" style="stroke:#000d19;stroke-width:.5"/><circle cx="121.25" cy="26.895" r="11" fill="#ADD1B2" style="stroke:#181818;stroke-width:1"/><path d="M124.219 32.535q-.578.297-1.219.438-.64.156-1.344.156-2.5 0-3.828-1.64-1.312-1.657-1.312-4.782t1.312-4.781q1.328-1.656 3.828-1.656.703 0 1.344.156.656.156 1.219.453v2.719q-.625-.578-1.219-.844-.594-.281-1.219-.281-1.344 0-2.031 1.078-.687 1.062-.687 3.156t.687 3.172q.688 1.062 2.031 1.062.625 0 1.219-.265.594-.281 1.219-.86z"/><text x="146.75" y="32.78" fill="#D9B8FF" font-family="Helvetica" font-size="17" textLength="71">resource</text><path d="M53.5 46.789h225" style="stroke:#000d19;stroke-width:.5"/><text x="63.5" y="68.784" fill="#D9B8FF" font-family="sans-serif" font-size="14" font-weight="bold" textLength="29">age</text><text x="92.5" y="68.784" fill="#D9B8FF" font-family="sans-serif" font-size="14" textLength="66">: duration</text><text x="63.5" y="95.081" fill="#D9B8FF" font-family="sans-serif" font-size="14" font-weight="bold" textLength="43">atime</text><text x="106.5" y="95.081" fill="#D9B8FF" font-family="sans-serif" font-size="14" textLength="70">: datetime</text><text x="63.5" y="121.378" fill="#D9B8FF" font-family="sans-serif" font-size="14" font-weight="bold" textLength="43">ctime</text><text x="106.5" y="121.378" fill="#D9B8FF" font-family="sans-serif" font-size="14" textLength="70">: datetime</text><text x="63.5" y="147.675" fill="#D9B8FF" font-family="sans-serif" font-size="14" font-weight="bold" textLength="14">id</text><text x="77.5" y="147.675" fill="#D9B8FF" font-family="sans-serif" font-size="14" textLength="48">: string</text><text x="63.5" y="173.972" fill="#D9B8FF" font-family="sans-serif" font-size="14" font-weight="bold" textLength="33">kind</text><text x="96.5" y="173.972" fill="#D9B8FF" font-family="sans-serif" font-size="14" textLength="48">: string</text><text x="63.5" y="200.269" fill="#D9B8FF" font-family="sans-serif" font-size="14" font-weight="bold" textLength="90">last_access</text><text x="153.5" y="200.269" fill="#D9B8FF" font-family="sans-serif" font-size="14" textLength="66">: duration</text><text x="63.5" y="226.565" fill="#D9B8FF" font-family="sans-serif" font-size="14" font-weight="bold" textLength="90">last_update</text><text x="153.5" y="226.565" fill="#D9B8FF" font-family="sans-serif" font-size="14" textLength="66">: duration</text><text x="63.5" y="252.862" fill="#D9B8FF" font-family="sans-serif" font-size="14" font-weight="bold" textLength="48">mtime</text><text x="111.5" y="252.862" fill="#D9B8FF" font-family="sans-serif" font-size="14" textLength="70">: datetime</text><text x="63.5" y="279.159" fill="#D9B8FF" font-family="sans-serif" font-size="14" font-weight="bold" textLength="43">name</text><text x="106.5" y="279.159" fill="#D9B8FF" font-family="sans-serif" font-size="14" textLength="48">: string</text><text x="63.5" y="305.456" fill="#D9B8FF" font-family="sans-serif" font-size="14" font-weight="bold" textLength="34">tags</text><text x="97.5" y="305.456" fill="#D9B8FF" font-family="sans-serif" font-size="14" textLength="171">: dictionary[string, string]</text><path fill="none" d="M166 531.33v102.05m0-120.05-6 18h12zm0-177.16v102.34m0-120.34-6 18h12z" style="stroke:#ffaf37;stroke-width:2"/></svg>
